dist/imgs/billing-yellow.svg

<svg width="16" height="17" viewBox="0 0 16 17" fill="none" xmlns="http://www.w3.org/2000/svg">
<path d="M0.999695 12.2495C0.999695 12.7137 1.18407 13.1588 1.51226 13.487C1.84045 13.8152 2.28557 13.9995 2.74969 13.9995H13.2497C13.7138 13.9995 14.1589 13.8152 14.4871 13.487C14.8153 13.1588 14.9997 12.7137 14.9997 12.2495V7.43704H0.999695V12.2495ZM3.06219 9.87454C3.06219 9.6259 3.16097 9.38745 3.33678 9.21163C3.5126 9.03581 3.75105 8.93704 3.99969 8.93704H5.49969C5.74833 8.93704 5.98679 9.03581 6.16261 9.21163C6.33842 9.38745 6.43719 9.6259 6.43719 9.87454V10.4995C6.43719 10.7482 6.33842 10.9866 6.16261 11.1625C5.98679 11.3383 5.74833 11.437 5.49969 11.437H3.99969C3.75105 11.437 3.5126 11.3383 3.33678 11.1625C3.16097 10.9866 3.06219 10.7482 3.06219 10.4995V9.87454Z" fill="#F6AD55"/>
<path d="M13.2497 2.99915H2.74969C2.28557 2.99915 1.84045 3.18352 1.51226 3.51171C1.18407 3.8399 0.999695 4.28502 0.999695 4.74915V5.56164H14.9997V4.74915C14.9997 4.28502 14.8153 3.8399 14.4871 3.51171C14.1589 3.18352 13.7138 2.99915 13.2497 2.99915Z" fill="#F6AD55"/>
</svg>

<svg width="16" height="17" fill="none" xmlns="http://www.w3.org/2000/svg"><path d="M1 12.25A1.75 1.75 0 002.75 14h10.5A1.75 1.75 0 0015 12.25V7.436H1v4.812zm2.062-2.375A.938.938 0 014 8.937h1.5a.938.938 0 01.937.938v.624a.938.938 0 01-.937.938H4a.937.937 0 01-.938-.938v-.624zM13.25 3H2.75A1.75 1.75 0 001 4.75v.812h14v-.813A1.75 1.75 0 0013.25 3z" fill="#F6AD55"/></svg>
